X:145
T:Rattle, The
M:6/8
L:1/8
B:Thompson's Compleat Collection of 200 Favourite Country Dances, vol. 3 (London, 1773)
Z:Transcribed and edited by Flynn Titford-Mock, 2007
Z:abc's:AK/Fiddler's Companion
K:G
gdB ecA | dBG AFD | c2e dBG | dcB A3 | gdB ecA | ABG FED | EFG ABc | ADF G3 :|
|: D2F A2c | BAG AFD | D2F A2c | dcB [A,3A3] | cac BgB | ABG AFD | EFG ABc | BDF G3 :|

